X:1
T:Moll in the Wood
C:trad. 
F:http://simonwascher.info
Z:abc transcription Simon Wascher
M:6/8
L:1/8
K:G
A |\
BAB G2F | E2F G2A | BAB G2B | AFD D2A |\
BAB G2F | E2F G2A | BGB dcB | AFD D2 :|
|: A |\
BGB d2c | BGB d2c | BGB dBd | ecA A2c |\
BGB d2c | BGB def | gfe dcB | AFD D2 :|
%%wordsfont Times-Italic 11pt
W:aus Simon Waschers TradArchiv
